X:944
T:Mrs Dundas McQueen
S:Kerr's Merry Melodies
N:Transposed from A for comparison
Z:Nigel Gatherer
M:4/4
L:1/8
K:G
g | BGdB cAec | BGdB de/f/ gd | BGdB cAec | 
BG G/G/G e2 d :|f |: g/f/e/d/ gd cAef | gdgf e2 de/f/ | 
gdeB cA dc |1 BG G/G/G e2 d :|2 BGGg egdg |]
<end>
<start>
